X: 1
T: Kit O'Mahony
M: 6/8
L: 1/8
R: jig
K: Gmaj
G/A/|~B3 ABA|GAG FGA|B/c/dB cAF|DGG G2A|
B2G AGF|DGE FGA|fed cAF|DGG G2:|
D|GBd deg|f2d cAF|GBd def|~g3 def|
g2e fed|edB cde|fed cAF|DGG G2:|
D|GBd cAc|BGG G (3Bcd|gdB cAE|FGA cAF|
GBd cAc|BGG G2g|fed cAF|1 DGG G2:|2 DGG G||
(3Bcd|~g3 dBG|fed cAF|GBd deg|~f3 def|
~g3 afd|bag afd|fed cAF|1 DGG G:|2 DGG G2||
